packages/icons/svg/24/Sun.svg

<svg width="24" height="24" viewBox="0 0 24 24" fill="none" xmlns="http://www.w3.org/2000/svg">
<path fill-rule="evenodd" clip-rule="evenodd" d="M12 9C10.3431 9 9 10.3431 9 12C9 13.6569 10.3431 15 12 15C13.6569 15 15 13.6569 15 12C15 10.3431 13.6569 9 12 9ZM7 12C7 9.23858 9.23858 7 12 7C14.7614 7 17 9.23858 17 12C17 14.7614 14.7614 17 12 17C9.23858 17 7 14.7614 7 12Z" fill="#858585"/>
<path fill-rule="evenodd" clip-rule="evenodd" d="M12 2C12.5523 2 13 2.44772 13 3V4C13 4.55228 12.5523 5 12 5C11.4477 5 11 4.55228 11 4V3C11 2.44772 11.4477 2 12 2Z" fill="#858585"/>
<path fill-rule="evenodd" clip-rule="evenodd" d="M19 12C19 11.4477 19.4477 11 20 11H21C21.5523 11 22 11.4477 22 12C22 12.5523 21.5523 13 21 13H20C19.4477 13 19 12.5523 19 12Z" fill="#858585"/>
<path fill-rule="evenodd" clip-rule="evenodd" d="M2 12C2 11.4477 2.44772 11 3 11H4C4.55228 11 5 11.4477 5 12C5 12.5523 4.55228 13 4 13H3C2.44772 13 2 12.5523 2 12Z" fill="#858585"/>
<path fill-rule="evenodd" clip-rule="evenodd" d="M12 19C12.5523 19 13 19.4477 13 20V21C13 21.5523 12.5523 22 12 22C11.4477 22 11 21.5523 11 21V20C11 19.4477 11.4477 19 12 19Z" fill="#858585"/>
<path fill-rule="evenodd" clip-rule="evenodd" d="M4.92893 4.92894C5.31945 4.53842 5.95261 4.53842 6.34314 4.92894L7.05025 5.63605C7.44077 6.02657 7.44077 6.65974 7.05025 7.05026C6.65972 7.44079 6.02656 7.44079 5.63603 7.05026L4.92893 6.34315C4.5384 5.95263 4.5384 5.31946 4.92893 4.92894Z" fill="#858585"/>
<path fill-rule="evenodd" clip-rule="evenodd" d="M16.9498 7.05025C16.5592 6.65972 16.5592 6.02656 16.9498 5.63603L17.6569 4.92893C18.0474 4.5384 18.6805 4.5384 19.0711 4.92893C19.4616 5.31945 19.4616 5.95262 19.0711 6.34314L18.364 7.05025C17.9734 7.44077 17.3403 7.44077 16.9498 7.05025Z" fill="#858585"/>
<path fill-rule="evenodd" clip-rule="evenodd" d="M4.92893 19.0711C4.5384 18.6806 4.5384 18.0474 4.92893 17.6569L5.63603 16.9498C6.02656 16.5593 6.65972 16.5593 7.05025 16.9498C7.44077 17.3403 7.44077 17.9735 7.05025 18.364L6.34314 19.0711C5.95261 19.4616 5.31945 19.4616 4.92893 19.0711Z" fill="#858585"/>
<path fill-rule="evenodd" clip-rule="evenodd" d="M16.9498 16.9498C17.3403 16.5592 17.9734 16.5592 18.364 16.9498L19.0711 17.6569C19.4616 18.0474 19.4616 18.6805 19.0711 19.0711C18.6805 19.4616 18.0474 19.4616 17.6569 19.0711L16.9498 18.364C16.5592 17.9734 16.5592 17.3403 16.9498 16.9498Z" fill="#858585"/>
</svg>

<svg width="24" height="24" fill="none" xmlns="http://www.w3.org/2000/svg" viewBox="0 0 24 24"><path fill-rule="evenodd" clip-rule="evenodd" d="M12 9a3 3 0 100 6 3 3 0 000-6zm-5 3a5 5 0 1110 0 5 5 0 01-10 0zM12 2a1 1 0 011 1v1a1 1 0 11-2 0V3a1 1 0 011-1zM19 12a1 1 0 011-1h1a1 1 0 110 2h-1a1 1 0 01-1-1zM2 12a1 1 0 011-1h1a1 1 0 110 2H3a1 1 0 01-1-1zM12 19a1 1 0 011 1v1a1 1 0 11-2 0v-1a1 1 0 011-1zM4.929 4.929a1 1 0 011.414 0l.707.707A1 1 0 015.636 7.05l-.707-.707a1 1 0 010-1.414zM16.95 7.05a1 1 0 010-1.414l.707-.707a1 1 0 111.414 1.414l-.707.707a1 1 0 01-1.414 0zM4.929 19.071a1 1 0 010-1.414l.707-.707a1 1 0 011.414 1.414l-.707.707a1 1 0 01-1.414 0zM16.95 16.95a1 1 0 011.414 0l.707.707a1 1 0 01-1.414 1.414l-.707-.707a1 1 0 010-1.414z" fill="currentColor"></path></svg>
